!!!OTL: ZU KINDELSBERG, AUF DEM HOHEN SCHLOSS
!!!ARE: Europa, Mitteleuropa, Deutschland, Westfalen
!!!SCT: Z0044
!!!YEM: Copyright 1995, estate of Helmut Schaffrath.
**kern
*ICvox
*Ivox
*M3/8
*k[]
*C:
{8G
=1
8c
8G
8c
=2
8e
8c
8e
=3
4g
8f
=4
8e
8r}
{8f
=5
8.e
16d
8c
=6
8.d
16c
8d
=7
4.e
=8
4c}
{8G
=9
8c
8G
8c
=10
8e
8c
8e
=11
4g
8f
=12
8e
8r}
{8f
=13
8.e
16d
8c
=14
8.d
16c
8d
=15
4.e
=16
4c}
{8G
=17
8.G
16E
8G
=18
8.G
16E
8G
=19
4A
8B
=20
4c}
{8e
=21
8d
8c
16B
16A
=22
8G
8F
8E
=23
4.F
=24
4E}
{8c
=25
4d
8c
=26
8.d
16c
8d
=27
4.e
=28
4c}
==
!!!AGN: Sagen - Lied, Romanze, Tod
!!!ONB: ESAC (Essen Associative Code) Database: ZUCCAL
!!!AMT: simple triple
!!!AIN: vox
!!!EED: Helmut Schaffrath
!!!EEV: 1.0
*-
